brandFactory_export/2.Regular/Bandera_2Regular.svg

<?xml version="1.0" encoding="UTF-8"?>
<svg width="24px" height="24px" viewBox="0 0 24 24" version="1.1" xmlns="http://www.w3.org/2000/svg" xmlns:xlink="http://www.w3.org/1999/xlink">
    <title>2.Regular/Bandera_2Regular</title>
    <g id="Symbols" stroke="none" stroke-width="1" fill="none" fill-rule="evenodd">
        <g id="2.Regular/Bandera_2Regular" fill="#5CB615" fill-rule="nonzero">
            <path d="M21.2739496,11.4319328 C21.2537815,11.4722689 21.2067227,11.5394958 21.102521,11.5394958 L3.40504202,11.5394958 L3.40504202,1.60336134 C3.40504202,1.49915966 3.48907563,1.41512605 3.59663866,1.41512605 L21.1058824,1.41512605 C21.210084,1.41512605 21.2571429,1.48235294 21.2773109,1.52268908 C21.3008403,1.57310924 21.3176471,1.64369748 21.3176471,1.65378151 L17.5966387,5.35798319 C16.9882353,5.96638655 16.9848739,6.95798319 17.5932773,7.57983193 L21.2537815,11.2336134 C21.3142857,11.3109244 21.297479,11.3848739 21.2739496,11.4319328 Z M18.5848739,6.60840336 C18.507563,6.52773109 18.5042017,6.40672269 18.5815126,6.33277311 L22.3596639,2.55798319 C22.7260504,2.08067227 22.789916,1.4487395 22.5210084,0.907563025 C22.2521008,0.366386555 21.7109244,0.0302521008 21.102521,0.0302521008 L3.59327731,0.0302521008 C2.72268908,0.0302521008 2.01344538,0.736134454 2.01344538,1.6 L2.01344538,22.9613445 C2.01344538,23.3411765 2.32605042,23.6504202 2.7092437,23.6504202 C3.09243697,23.6504202 3.40504202,23.3411765 3.40504202,22.9613445 L3.40504202,12.9176471 L21.102521,12.9176471 C21.707563,12.9176471 22.2521008,12.5815126 22.5210084,12.0403361 C22.789916,11.4991597 22.7260504,10.8672269 22.302521,10.3226891 L18.5848739,6.60840336 Z" id="Bandera_2Regular"></path>
        </g>
    </g>
</svg>

<svg width="24" height="24" viewBox="0 0 24 24" xmlns="http://www.w3.org/2000/svg"><path d="M21.274 11.432a.183.183 0 01-.171.107H3.405V1.603c0-.104.084-.188.192-.188h17.509c.104 0 .151.067.171.108.024.05.04.12.04.13l-3.72 3.705a1.58 1.58 0 00-.004 2.222l3.66 3.654c.061.077.044.15.02.198zm-2.69-4.824c-.076-.08-.08-.201-.002-.275l3.778-3.775c.366-.477.43-1.11.161-1.65A1.571 1.571 0 0021.103.03H3.593c-.87 0-1.58.706-1.58 1.57v21.361c0 .38.313.69.696.69.383 0 .696-.31.696-.69V12.918h17.698c.605 0 1.15-.336 1.418-.878.269-.54.205-1.173-.218-1.717l-3.718-3.715z" fill="#5CB615" fill-rule="nonzero"/></svg>
